src/img/novacard.svg

<svg height="201" viewBox="0 0 301 201" width="301" xmlns="http://www.w3.org/2000/svg" xmlns:xlink="http://www.w3.org/1999/xlink"><defs><rect id="a" height="102" rx="51" width="102"/><mask id="b" fill="#fff"><use fill="#fff" fill-rule="evenodd" xlink:href="#a"/></mask></defs><g fill="none" fill-rule="nonzero"><path d="m50.84375-49.621094h200v300h-200z" fill="#404142" fill-opacity=".3" transform="matrix(0 -1 1 0 50.464844 251.222656)"/><g transform="translate(100 50)"><use fill="#121111" xlink:href="#a"/><g fill="#ffe99e"><path d="m78.7444044 51.4997218c3.0256379 1.5911863 4.7555956 3.4706721 4.7555956 5.5002782s-1.7299577 3.9090919-4.7555956 5.5002782c-5.7399799-3.0192181-16.1431664-5.0002782-28.2444044-5.0002782s-22.5044245 1.9810601-28.2444044 4.9997218c-3.0256379-1.5906299-4.7555956-3.4701157-4.7555956-5.4997218s1.7299577-3.9090919 4.7555956-5.5002782c5.7399799 3.0192181 16.1431664 5.0002782 28.2444044 5.0002782 12.012 0 22.3509-1.95195 28.11666-4.93311z" mask="url(#b)"/><path d="m50.5 35.5c18.48 0 33 4.62 33 10.5 0 2.0296061-1.7299577 3.9090919-4.7555956 5.5002782-5.7399799-3.0192181-16.1431664-5.0002782-28.2444044-5.0002782s-22.5044245 1.9810601-28.2444044 4.9997218c-3.0256379-1.5906299-4.7555956-3.4701157-4.7555956-5.4997218 0-5.88 14.52-10.5 33-10.5z" mask="url(#b)"/></g></g></g></svg>

<?xml version="1.0" encoding="UTF-8"?>
<svg width="301px" height="201px" viewBox="0 0 301 201" version="1.1" xmlns="http://www.w3.org/2000/svg" xmlns:xlink="http://www.w3.org/1999/xlink">
    <title>novacard</title>
    <defs>
        <rect id="path-1" x="0" y="0" width="102" height="102" rx="51"></rect>
        <rect id="path-3" x="0" y="0" width="102" height="102" rx="51"></rect>
    </defs>
    <g id="Page-1" stroke="none" stroke-width="1" fill="none" fill-rule="evenodd">
        <g id="novacard">
            <polygon id="Path" fill-opacity="0.3" fill="#404142" fill-rule="nonzero" transform="translate(150.843750, 100.378906) rotate(-90.000000) translate(-150.843750, -100.378906) " points="50.84375 -49.621094 250.84375 -49.621094 250.84375 250.378906 50.84375 250.378906"></polygon>
            <g id="Group" transform="translate(100.000000, 50.000000)">
                <g id="a-link" fill="#121111" fill-rule="nonzero">
                    <rect id="a" x="0" y="0" width="102" height="102" rx="51"></rect>
                </g>
                <g id="Clipped">
                    <g>
                        <mask id="mask-2" fill="white">
                            <use xlink:href="#path-1"></use>
                        </mask>
                        <use id="a" fill="#FFE99E" xlink:href="#path-1"></use>
                        <path d="M78.7444044,51.4997218 C81.7700423,53.0909081 83.5,54.9703939 83.5,57 C83.5,59.0296061 81.7700423,60.9090919 78.7444044,62.5002782 C73.0044245,59.4810601 62.601238,57.5 50.5,57.5 C38.398762,57.5 27.9955755,59.4810601 22.2555956,62.4997218 C19.2299577,60.9090919 17.5,59.0296061 17.5,57 C17.5,54.9703939 19.2299577,53.0909081 22.2555956,51.4997218 C27.9955755,54.5189399 38.398762,56.5 50.5,56.5 C62.512,56.5 72.8509,54.54805 78.61666,51.56689 L78.7444044,51.4997218 Z" id="Path" fill="#121111" fill-rule="nonzero" mask="url(#mask-2)"></path>
                    </g>
                    <g>
                        <mask id="mask-4" fill="white">
                            <use xlink:href="#path-3"></use>
                        </mask>
                        <g id="a"></g>
                        <path d="M50.5,35.5 C68.98,35.5 83.5,40.12 83.5,46 C83.5,48.0296061 81.7700423,49.9090919 78.7444044,51.5002782 C73.0044245,48.4810601 62.601238,46.5 50.5,46.5 C38.398762,46.5 27.9955755,48.4810601 22.2555956,51.4997218 C19.2299577,49.9090919 17.5,48.0296061 17.5,46 C17.5,40.12 32.02,35.5 50.5,35.5 Z" id="Path" fill="#121111" fill-rule="nonzero" mask="url(#mask-4)"></path>
                    </g>
                </g>
            </g>
        </g>
    </g>
</svg>
